static/markers/marker-red.svg

<svg width="58" height="80" viewBox="0 0 58 80" fill="none" xmlns="http://www.w3.org/2000/svg">
<ellipse cx="29.5" cy="76.5" rx="17.5" ry="3.5" fill="black" fill-opacity="0.1"/>
<path d="M29 0C21.3114 0.00898033 13.9402 3.15764 8.50354 8.75521C3.06687 14.3528 0.00872219 21.9421 0 29.8583C0 55.4075 26.3636 74.7136 27.4841 75.5279C27.9331 75.8358 28.4605 76 29 76C29.5395 76 30.0669 75.8358 30.5159 75.5279C31.6364 74.7136 58 55.4075 58 29.8583C57.9913 21.9421 54.9331 14.3528 49.4965 8.75521C44.0598 3.15764 36.6886 0.00898033 29 0Z" fill="url(#paint0_linear_120_27)"/>
<path fill-rule="evenodd" clip-rule="evenodd" d="M15.9091 19.5C15.4751 19.5 15.0589 19.6844 14.752 20.0126C14.4451 20.3408 14.2727 20.7859 14.2727 21.25V38.75C14.2727 39.2141 14.4451 39.6592 14.752 39.9874C15.0589 40.3156 15.4751 40.5 15.9091 40.5H42.0909C42.5249 40.5 42.9411 40.3156 43.248 39.9874C43.5549 39.6592 43.7273 39.2141 43.7273 38.75V21.25C43.7273 20.7859 43.5549 20.3408 43.248 20.0126C42.9411 19.6844 42.5249 19.5 42.0909 19.5H15.9091ZM12.4378 17.5377C13.3585 16.5531 14.6071 16 15.9091 16H42.0909C43.3929 16 44.6415 16.5531 45.5622 17.5377C46.4828 18.5223 47 19.8576 47 21.25V38.75C47 40.1424 46.4828 41.4777 45.5622 42.4623C44.6415 43.4469 43.3929 44 42.0909 44H15.9091C14.6071 44 13.3585 43.4469 12.4378 42.4623C11.5172 41.4777 11 40.1424 11 38.75V21.25C11 19.8576 11.5172 18.5223 12.4378 17.5377Z" fill="white"/>
<path fill-rule="evenodd" clip-rule="evenodd" d="M29 26.5C27.1925 26.5 25.7273 28.067 25.7273 30C25.7273 31.933 27.1925 33.5 29 33.5C30.8075 33.5 32.2727 31.933 32.2727 30C32.2727 28.067 30.8075 26.5 29 26.5ZM22.4545 30C22.4545 26.134 25.385 23 29 23C32.615 23 35.5455 26.134 35.5455 30C35.5455 33.866 32.615 37 29 37C25.385 37 22.4545 33.866 22.4545 30Z" fill="white"/>
<path fill-rule="evenodd" clip-rule="evenodd" d="M19.1818 16C20.0856 16 20.8182 16.7835 20.8182 17.75C20.8182 20.0706 19.9562 22.2962 18.4218 23.9372C16.8874 25.5781 14.8063 26.5 12.6364 26.5C11.7326 26.5 11 25.7165 11 24.75C11 23.7835 11.7326 23 12.6364 23C13.9383 23 15.187 22.4469 16.1076 21.4623C17.0282 20.4777 17.5455 19.1424 17.5455 17.75C17.5455 16.7835 18.2781 16 19.1818 16ZM45.3636 37C44.0617 37 42.813 37.5531 41.8924 38.5377C40.9718 39.5223 40.4545 40.8576 40.4545 42.25C40.4545 43.2165 39.7219 44 38.8182 44C37.9144 44 37.1818 43.2165 37.1818 42.25C37.1818 39.9294 38.0438 37.7038 39.5782 36.0628C41.1126 34.4219 43.1937 33.5 45.3636 33.5C46.2674 33.5 47 34.2835 47 35.25C47 36.2165 46.2674 37 45.3636 37Z" fill="white"/>
<defs>
<linearGradient id="paint0_linear_120_27" x1="0" y1="0" x2="58" y2="76" gradientUnits="userSpaceOnUse">
<stop stop-color="#4438CA"/>
<stop offset="1" stop-color="#746CD2"/>
</linearGradient>
</defs>
</svg>

<svg xmlns="http://www.w3.org/2000/svg" width="58" height="76" fill="none">
    <path fill="url(#a)" d="M29 0C21.311.009 13.94 3.158 8.504 8.755 3.067 14.353.009 21.942 0 29.858c0 25.55 26.364 44.856 27.484 45.67.45.308.976.472 1.516.472s1.067-.164 1.516-.472C31.636 74.714 58 55.408 58 29.858c-.009-7.916-3.067-15.505-8.504-21.103C44.06 3.158 36.69.01 29 0Z" />
    <path fill="#fff" fill-rule="evenodd" d="M15.91 19.5c-.435 0-.851.184-1.158.513-.307.328-.48.773-.48 1.237v17.5c0 .464.173.91.48 1.237.307.329.723.513 1.157.513h26.182c.434 0 .85-.184 1.157-.513.307-.328.48-.773.48-1.237v-17.5c0-.464-.173-.91-.48-1.237a1.584 1.584 0 0 0-1.157-.513H15.909Zm-3.472-1.962c.92-.985 2.17-1.538 3.471-1.538h26.182c1.302 0 2.55.553 3.471 1.538.92.984 1.438 2.32 1.438 3.712v17.5c0 1.392-.517 2.728-1.438 3.712-.92.985-2.17 1.538-3.471 1.538H15.909c-1.302 0-2.55-.553-3.471-1.538-.92-.984-1.438-2.32-1.438-3.712v-17.5c0-1.392.517-2.728 1.438-3.712Z" clip-rule="evenodd" />
    <path fill="#fff" fill-rule="evenodd" d="M29 26.5c-1.808 0-3.273 1.567-3.273 3.5s1.465 3.5 3.273 3.5 3.273-1.567 3.273-3.5-1.466-3.5-3.273-3.5ZM22.454 30c0-3.866 2.931-7 6.546-7s6.545 3.134 6.545 7-2.93 7-6.545 7c-3.615 0-6.546-3.134-6.546-7ZM19.182 16c.904 0 1.636.784 1.636 1.75 0 2.32-.862 4.546-2.396 6.187-1.535 1.641-3.616 2.563-5.786 2.563-.903 0-1.636-.784-1.636-1.75S11.733 23 12.636 23c1.302 0 2.551-.553 3.472-1.538.92-.984 1.438-2.32 1.438-3.712 0-.966.732-1.75 1.636-1.75Zm26.182 21c-1.302 0-2.551.553-3.472 1.538-.92.984-1.438 2.32-1.438 3.712 0 .967-.732 1.75-1.636 1.75-.904 0-1.636-.783-1.636-1.75 0-2.32.862-4.546 2.396-6.187 1.535-1.641 3.616-2.563 5.786-2.563.903 0 1.636.783 1.636 1.75S46.267 37 45.364 37Z" clip-rule="evenodd" />
    <defs>
        <linearGradient id="a" x1="58" x2="0" y1="0" y2="76" gradientUnits="userSpaceOnUse">
            <stop stop-color="#E52D27" />
            <stop offset="1" stop-color="#B31217" />
        </linearGradient>
    </defs>
</svg>
